X:285
T: Californian Girl
S: "Where's the Crack v/1" (DJ Taylor)
Z: B.Black
L: 1/8
M: 4/4
R: reel
K: C
cA|GE E2 CEGE|GEGA GAcd|ecge acgc|dged cAAB|
ceBG AGEG|C2 EC GCEG|AF F2 ABcd|egdg ec :|
ce|ceed efed|ce e2 ge e2|cegc' e'c'ge|faeg dcde|
ce e2 efed|ce e2 ge e2|cffe fagf|efdB cB :|
ce|gG G2 EGcd|ec'bc' agfe|fdd^c d=cBA| G2 ^FA GcEG|
gG G2 EGcd|ec'bc' agfe|fd d2 dcBA|GEFD C2 :|
P: version in A
K: A
AF|EC C2 A,CEC|ECEF EFAB|cAec fAeA|BecB AFFG|
AcGE FECE|A,2 CA, EA,CE|FD D2 FGAB|ceBe cA :|
Ac|AccB cdcB|Ac c2 ec c2|Acea c'aec|dfce BABc|
Ac c2 cdcB|Ac c2 ec c2|Addc dfed|cdBG AG :|
Ac|eE E2 CEAB|caga fedc|dBB^A B=AGF| E2 ^DF EACE|
eE E2 CEAB|caga fedc|dB B2 BAGF|ECDB, A,2 :|
